src/assets/images/seven23/seven23_v1.svg

<svg clip-rule="evenodd" fill-rule="evenodd" stroke-linejoin="round" stroke-miterlimit="2" viewBox="0 0 463 122" xmlns="http://www.w3.org/2000/svg"><g fill-rule="nonzero"><path d="m.511-.198c0 .064-.023.115-.069.152-.047.037-.111.056-.194.056-.076 0-.144-.015-.202-.043v-.141c.048.022.089.037.122.046.034.008.064.013.092.013.033 0 .058-.007.076-.019.018-.013.027-.032.027-.057 0-.014-.004-.026-.012-.037s-.019-.022-.034-.032-.046-.026-.093-.048c-.043-.021-.076-.04-.098-.059s-.039-.041-.052-.066-.02-.054-.02-.088c0-.063.022-.113.064-.149.043-.036.102-.054.178-.054.037 0 .072.004.106.013s.069.021.106.037l-.049.118c-.038-.016-.07-.027-.094-.033-.025-.006-.05-.009-.074-.009-.029 0-.051.007-.066.02s-.023.031-.023.052c0 .013.003.025.009.035.007.01.016.02.03.029.013.009.045.026.096.05.067.032.112.064.137.096s.037.071.037.118z" transform="matrix(113.26668 0 0 113.26668 14.114029 100.85846456)"/><path d="m.304-.45c-.031 0-.056.01-.074.03s-.028.048-.031.085h.209c0-.037-.01-.065-.029-.085-.018-.02-.043-.03-.075-.03zm.021.46c-.088 0-.156-.024-.206-.073-.049-.048-.074-.117-.074-.206 0-.092.023-.162.069-.212.045-.05.108-.075.189-.075.077 0 .137.022.18.066s.065.104.065.182v.072h-.352c.001.042.014.076.037.099.024.024.057.036.099.036.033 0 .064-.003.093-.01.03-.007.06-.018.092-.033v.115c-.026.013-.054.023-.083.029-.03.007-.066.01-.109.01z" transform="matrix(113.26668 0 0 113.26668 71.96498581 100.85846456)"/><path d="m.208 0-.208-.546h.156l.105.311c.012.04.019.077.022.112h.003c.002-.031.009-.069.022-.112l.105-.311h.156l-.208.546z" transform="matrix(113.26668 0 0 113.26668 132.09071511 100.85846456)"/><path d="m.304-.45c-.031 0-.056.01-.074.03s-.028.048-.031.085h.209c0-.037-.01-.065-.029-.085-.018-.02-.043-.03-.075-.03zm.021.46c-.088 0-.156-.024-.206-.073-.049-.048-.074-.117-.074-.206 0-.092.023-.162.069-.212.045-.05.108-.075.189-.075.077 0 .137.022.18.066s.065.104.065.182v.072h-.352c.001.042.014.076.037.099.024.024.057.036.099.036.033 0 .064-.003.093-.01.03-.007.06-.018.092-.033v.115c-.026.013-.054.023-.083.029-.03.007-.066.01-.109.01z" transform="matrix(113.26668 0 0 113.26668 191.98991105 100.85846456)"/><path d="m.582 0h-.149v-.319c0-.039-.007-.069-.021-.088-.014-.02-.036-.03-.067-.03-.041 0-.072.014-.09.042-.019.028-.028.074-.028.138v.257h-.149v-.546h.114l.02.07h.008c.017-.026.04-.046.069-.06.029-.013.062-.02.099-.02.064 0 .112.017.145.051.033.035.049.084.049.149z" transform="matrix(113.26668 0 0 113.26668 254.38097395 100.85846456)"/><path d="m.539 0h-.499v-.105l.179-.181c.053-.054.088-.092.104-.113.017-.021.028-.041.035-.059.008-.017.011-.036.011-.055 0-.029-.008-.05-.024-.064-.015-.014-.036-.021-.063-.021s-.054.006-.08.019-.054.031-.082.054l-.082-.097c.035-.03.064-.051.087-.064.024-.012.049-.021.076-.028.028-.007.058-.01.092-.01.045 0 .084.008.118.024.034.017.061.039.08.069.019.029.028.062.028.1 0 .033-.006.064-.017.093-.012.029-.03.058-.054.088-.024.031-.067.074-.128.13l-.092.086v.007h.311z" transform="matrix(113.26668 0 0 113.26668 324.28539329 100.85846456)"/><path d="m.511-.554c0 .044-.013.082-.04.114-.027.031-.065.052-.114.064v.003c.058.007.101.025.131.052.029.028.044.066.044.113 0 .069-.025.122-.074.16-.05.039-.121.058-.214.058-.077 0-.146-.013-.206-.039v-.128c.028.014.058.025.091.034.034.009.066.013.099.013.05 0 .087-.008.11-.025.024-.017.036-.044.036-.082 0-.033-.014-.057-.041-.071s-.071-.021-.131-.021h-.054v-.116h.055c.055 0 .096-.007.121-.022.026-.014.039-.039.039-.074 0-.054-.034-.081-.102-.081-.023 0-.047.004-.071.012-.025.007-.051.021-.081.04l-.07-.104c.065-.047.143-.07.233-.07.074 0 .132.015.175.045s.064.071.064.125z" transform="matrix(113.26668 0 0 113.26668 384.41112259 100.85846456)"/></g></svg>

<?xml version="1.0" encoding="UTF-8" standalone="no"?>
<!DOCTYPE svg PUBLIC "-//W3C//DTD SVG 1.1//EN" "http://www.w3.org/Graphics/SVG/1.1/DTD/svg11.dtd">
<svg width="100%" height="100%" viewBox="0 0 463 122" version="1.1" xmlns="http://www.w3.org/2000/svg" xmlns:xlink="http://www.w3.org/1999/xlink" xml:space="preserve" xmlns:serif="http://www.serif.com/" style="fill-rule:evenodd;clip-rule:evenodd;stroke-linejoin:round;stroke-miterlimit:2;">
    <g transform="matrix(9.43889,0,0,9.43889,-1176.13,-1202.69)">
        <g transform="matrix(12,0,0,12,126.1,138.104)">
            <path d="M0.511,-0.198C0.511,-0.134 0.488,-0.083 0.442,-0.046C0.395,-0.009 0.331,0.01 0.248,0.01C0.172,0.01 0.104,-0.005 0.046,-0.033L0.046,-0.174C0.094,-0.152 0.135,-0.137 0.168,-0.128C0.202,-0.12 0.232,-0.115 0.26,-0.115C0.293,-0.115 0.318,-0.122 0.336,-0.134C0.354,-0.147 0.363,-0.166 0.363,-0.191C0.363,-0.205 0.359,-0.217 0.351,-0.228C0.343,-0.239 0.332,-0.25 0.317,-0.26C0.302,-0.27 0.271,-0.286 0.224,-0.308C0.181,-0.329 0.148,-0.348 0.126,-0.367C0.104,-0.386 0.087,-0.408 0.074,-0.433C0.061,-0.458 0.054,-0.487 0.054,-0.521C0.054,-0.584 0.076,-0.634 0.118,-0.67C0.161,-0.706 0.22,-0.724 0.296,-0.724C0.333,-0.724 0.368,-0.72 0.402,-0.711C0.436,-0.702 0.471,-0.69 0.508,-0.674L0.459,-0.556C0.421,-0.572 0.389,-0.583 0.365,-0.589C0.34,-0.595 0.315,-0.598 0.291,-0.598C0.262,-0.598 0.24,-0.591 0.225,-0.578C0.21,-0.565 0.202,-0.547 0.202,-0.526C0.202,-0.513 0.205,-0.501 0.211,-0.491C0.218,-0.481 0.227,-0.471 0.241,-0.462C0.254,-0.453 0.286,-0.436 0.337,-0.412C0.404,-0.38 0.449,-0.348 0.474,-0.316C0.499,-0.284 0.511,-0.245 0.511,-0.198Z" style="fill-rule:nonzero;"/>
        </g>
        <g transform="matrix(12,0,0,12,132.229,138.104)">
            <path d="M0.304,-0.45C0.273,-0.45 0.248,-0.44 0.23,-0.42C0.212,-0.4 0.202,-0.372 0.199,-0.335L0.408,-0.335C0.408,-0.372 0.398,-0.4 0.379,-0.42C0.361,-0.44 0.336,-0.45 0.304,-0.45ZM0.325,0.01C0.237,0.01 0.169,-0.014 0.119,-0.063C0.07,-0.111 0.045,-0.18 0.045,-0.269C0.045,-0.361 0.068,-0.431 0.114,-0.481C0.159,-0.531 0.222,-0.556 0.303,-0.556C0.38,-0.556 0.44,-0.534 0.483,-0.49C0.526,-0.446 0.548,-0.386 0.548,-0.308L0.548,-0.236L0.196,-0.236C0.197,-0.194 0.21,-0.16 0.233,-0.137C0.257,-0.113 0.29,-0.101 0.332,-0.101C0.365,-0.101 0.396,-0.104 0.425,-0.111C0.455,-0.118 0.485,-0.129 0.517,-0.144L0.517,-0.029C0.491,-0.016 0.463,-0.006 0.434,0C0.404,0.007 0.368,0.01 0.325,0.01Z" style="fill-rule:nonzero;"/>
        </g>
        <g transform="matrix(12,0,0,12,138.599,138.104)">
            <path d="M0.208,0L0,-0.546L0.156,-0.546L0.261,-0.235C0.273,-0.195 0.28,-0.158 0.283,-0.123L0.286,-0.123C0.288,-0.154 0.295,-0.192 0.308,-0.235L0.413,-0.546L0.569,-0.546L0.361,0L0.208,0Z" style="fill-rule:nonzero;"/>
        </g>
        <g transform="matrix(12,0,0,12,144.945,138.104)">
            <path d="M0.304,-0.45C0.273,-0.45 0.248,-0.44 0.23,-0.42C0.212,-0.4 0.202,-0.372 0.199,-0.335L0.408,-0.335C0.408,-0.372 0.398,-0.4 0.379,-0.42C0.361,-0.44 0.336,-0.45 0.304,-0.45ZM0.325,0.01C0.237,0.01 0.169,-0.014 0.119,-0.063C0.07,-0.111 0.045,-0.18 0.045,-0.269C0.045,-0.361 0.068,-0.431 0.114,-0.481C0.159,-0.531 0.222,-0.556 0.303,-0.556C0.38,-0.556 0.44,-0.534 0.483,-0.49C0.526,-0.446 0.548,-0.386 0.548,-0.308L0.548,-0.236L0.196,-0.236C0.197,-0.194 0.21,-0.16 0.233,-0.137C0.257,-0.113 0.29,-0.101 0.332,-0.101C0.365,-0.101 0.396,-0.104 0.425,-0.111C0.455,-0.118 0.485,-0.129 0.517,-0.144L0.517,-0.029C0.491,-0.016 0.463,-0.006 0.434,0C0.404,0.007 0.368,0.01 0.325,0.01Z" style="fill-rule:nonzero;"/>
        </g>
        <g transform="matrix(12,0,0,12,151.555,138.104)">
            <path d="M0.582,0L0.433,0L0.433,-0.319C0.433,-0.358 0.426,-0.388 0.412,-0.407C0.398,-0.427 0.376,-0.437 0.345,-0.437C0.304,-0.437 0.273,-0.423 0.255,-0.395C0.236,-0.367 0.227,-0.321 0.227,-0.257L0.227,0L0.078,0L0.078,-0.546L0.192,-0.546L0.212,-0.476L0.22,-0.476C0.237,-0.502 0.26,-0.522 0.289,-0.536C0.318,-0.549 0.351,-0.556 0.388,-0.556C0.452,-0.556 0.5,-0.539 0.533,-0.505C0.566,-0.47 0.582,-0.421 0.582,-0.356L0.582,0Z" style="fill-rule:nonzero;"/>
        </g>
        <g transform="matrix(12,0,0,12,158.961,138.104)">
            <path d="M0.539,0L0.04,0L0.04,-0.105L0.219,-0.286C0.272,-0.34 0.307,-0.378 0.323,-0.399C0.34,-0.42 0.351,-0.44 0.358,-0.458C0.366,-0.475 0.369,-0.494 0.369,-0.513C0.369,-0.542 0.361,-0.563 0.345,-0.577C0.33,-0.591 0.309,-0.598 0.282,-0.598C0.255,-0.598 0.228,-0.592 0.202,-0.579C0.176,-0.566 0.148,-0.548 0.12,-0.525L0.038,-0.622C0.073,-0.652 0.102,-0.673 0.125,-0.686C0.149,-0.698 0.174,-0.707 0.201,-0.714C0.229,-0.721 0.259,-0.724 0.293,-0.724C0.338,-0.724 0.377,-0.716 0.411,-0.7C0.445,-0.683 0.472,-0.661 0.491,-0.631C0.51,-0.602 0.519,-0.569 0.519,-0.531C0.519,-0.498 0.513,-0.467 0.502,-0.438C0.49,-0.409 0.472,-0.38 0.448,-0.35C0.424,-0.319 0.381,-0.276 0.32,-0.22L0.228,-0.134L0.228,-0.127L0.539,-0.127L0.539,0Z" style="fill-rule:nonzero;"/>
        </g>
        <g transform="matrix(12,0,0,12,165.331,138.104)">
            <path d="M0.511,-0.554C0.511,-0.51 0.498,-0.472 0.471,-0.44C0.444,-0.409 0.406,-0.388 0.357,-0.376L0.357,-0.373C0.415,-0.366 0.458,-0.348 0.488,-0.321C0.517,-0.293 0.532,-0.255 0.532,-0.208C0.532,-0.139 0.507,-0.086 0.458,-0.048C0.408,-0.009 0.337,0.01 0.244,0.01C0.167,0.01 0.098,-0.003 0.038,-0.029L0.038,-0.157C0.066,-0.143 0.096,-0.132 0.129,-0.123C0.163,-0.114 0.195,-0.11 0.228,-0.11C0.278,-0.11 0.315,-0.118 0.338,-0.135C0.362,-0.152 0.374,-0.179 0.374,-0.217C0.374,-0.25 0.36,-0.274 0.333,-0.288C0.306,-0.302 0.262,-0.309 0.202,-0.309L0.148,-0.309L0.148,-0.425L0.203,-0.425C0.258,-0.425 0.299,-0.432 0.324,-0.447C0.35,-0.461 0.363,-0.486 0.363,-0.521C0.363,-0.575 0.329,-0.602 0.261,-0.602C0.238,-0.602 0.214,-0.598 0.19,-0.59C0.165,-0.583 0.139,-0.569 0.109,-0.55L0.039,-0.654C0.104,-0.701 0.182,-0.724 0.272,-0.724C0.346,-0.724 0.404,-0.709 0.447,-0.679C0.49,-0.649 0.511,-0.608 0.511,-0.554Z" style="fill-rule:nonzero;"/>
        </g>
    </g>
</svg>
